MonoIcons/scalable/status/daytime-sunrise-symbolic.svg

<?xml version="1.0" encoding="UTF-8"?>
<svg height="16px" viewBox="0 0 16 16" width="16px" xmlns="http://www.w3.org/2000/svg">
    <g fill="#2e3436">
        <path d="m 2.984375 7.84375 c -0.128906 0 -0.253906 0.046875 -0.355469 0.144531 l -0.707031 0.710938 c -0.195313 0.195312 -0.195313 0.507812 0 0.707031 l 1.417969 1.414062 c 0.195312 0.195313 0.507812 0.195313 0.703125 0 l 0.710937 -0.707031 c 0.195313 -0.199219 0.195313 -0.511719 0 -0.707031 l -1.417968 -1.417969 c -0.097657 -0.097656 -0.222657 -0.148437 -0.351563 -0.144531 z m 9.898437 0 c -0.125 -0.003906 -0.253906 0.046875 -0.351562 0.144531 l -1.414062 1.417969 c -0.195313 0.195312 -0.195313 0.507812 0 0.707031 l 0.707031 0.707031 c 0.195312 0.195313 0.511719 0.195313 0.707031 0 l 1.414062 -1.414062 c 0.195313 -0.199219 0.195313 -0.511719 0 -0.707031 l -0.707031 -0.710938 c -0.097656 -0.097656 -0.226562 -0.144531 -0.355469 -0.144531 z m -4.949218 2.15625 c -2.195313 0 -4 1.800781 -4 4 c 0.003906 0.550781 0.449218 1 1 1 h 6 c 0.554687 0 1 -0.449219 1 -1 c 0 -2.199219 -1.800782 -4 -4 -4 z m -7.5 3 c -0.273438 0 -0.5000002 0.222656 -0.5000002 0.5 v 1 c 0 0.277344 0.2265622 0.5 0.5000002 0.5 h 2 c 0.277344 0 0.5 -0.222656 0.5 -0.5 v -1 c 0 -0.277344 -0.222656 -0.5 -0.5 -0.5 z m 13 0 c -0.273438 0 -0.5 0.222656 -0.5 0.5 v 1 c 0 0.277344 0.226562 0.5 0.5 0.5 h 2 c 0.277344 0 0.5 -0.222656 0.5 -0.5 v -1 c 0 -0.277344 -0.222656 -0.5 -0.5 -0.5 z m 0 0"/>
        <path d="m 8 9 c -0.550781 0 -1 -0.449219 -1 -1 v -3 h -2 v -1 h 0.007812 c -0.003906 -0.265625 0.101563 -0.519531 0.285157 -0.707031 l 2 -2 c 0.390625 -0.390625 1.023437 -0.390625 1.414062 0 l 2 2 c 0.183594 0.1875 0.289063 0.441406 0.289063 0.707031 h 0.003906 v 1 h -2 v 3 c 0 0.550781 -0.449219 1 -1 1 z m 0 0"/>
    </g>
</svg>

<svg width="16" height="16" viewBox="0 0 16 16" fill="none" xmlns="http://www.w3.org/2000/svg">
<g clip-path="url(#clip0_231_1376)">
<path d="M2.98438 7.84365C2.85547 7.84365 2.73047 7.89053 2.62891 7.98819L1.92188 8.69912C1.72656 8.89444 1.72656 9.20694 1.92188 9.40615L3.33984 10.8202C3.53516 11.0155 3.84766 11.0155 4.04297 10.8202L4.75391 10.1132C4.94922 9.91397 4.94922 9.60147 4.75391 9.40615L3.33594 7.98819C3.23828 7.89053 3.11328 7.83975 2.98438 7.84365V7.84365ZM12.8828 7.84365C12.7578 7.83975 12.6289 7.89053 12.5312 7.98819L11.1172 9.40615C10.9219 9.60147 10.9219 9.91397 11.1172 10.1132L11.8242 10.8202C12.0195 11.0155 12.3359 11.0155 12.5312 10.8202L13.9453 9.40615C14.1406 9.20694 14.1406 8.89444 13.9453 8.69912L13.2383 7.98819C13.1406 7.89053 13.0117 7.84365 12.8828 7.84365V7.84365ZM7.93359 9.9999C5.73828 9.9999 3.93359 11.8007 3.93359 13.9999C3.9375 14.5507 4.38281 14.9999 4.93359 14.9999H10.9336C11.4883 14.9999 11.9336 14.5507 11.9336 13.9999C11.9336 11.8007 10.1328 9.9999 7.93359 9.9999ZM0.433594 12.9999C0.160156 12.9999 -0.0664062 13.2226 -0.0664062 13.4999V14.4999C-0.0664062 14.7772 0.160156 14.9999 0.433594 14.9999H2.43359C2.71094 14.9999 2.93359 14.7772 2.93359 14.4999V13.4999C2.93359 13.2226 2.71094 12.9999 2.43359 12.9999H0.433594ZM13.4336 12.9999C13.1602 12.9999 12.9336 13.2226 12.9336 13.4999V14.4999C12.9336 14.7772 13.1602 14.9999 13.4336 14.9999H15.4336C15.7109 14.9999 15.9336 14.7772 15.9336 14.4999V13.4999C15.9336 13.2226 15.7109 12.9999 15.4336 12.9999H13.4336Z" fill="#2E3436"/>
<path d="M8 9C7.44922 9 7 8.55078 7 8V5H5V4H5.00781C5.00391 3.73437 5.10938 3.48047 5.29297 3.29297L7.29297 1.29297C7.68359 0.902344 8.31641 0.902344 8.70703 1.29297L10.707 3.29297C10.8906 3.48047 10.9961 3.73437 10.9961 4H11V5H9V8C9 8.55078 8.55078 9 8 9V9Z" fill="#2E3436"/>
</g>
<defs>
<clipPath id="clip0_231_1376">
<rect width="16" height="16" fill="white"/>
</clipPath>
</defs>
</svg>
